assets/creative.svg

<svg width="121" height="121" viewBox="0 0 121 121" fill="none" xmlns="http://www.w3.org/2000/svg">
<rect width="121" height="121" rx="35" fill="#DEFFEE"/>
<path d="M61.6245 79.75V88.5" stroke="#2FD686" stroke-width="5" stroke-linecap="round" stroke-linejoin="round"/>
<path d="M40.7913 102.667H82.4579V98.5C82.4579 93.9166 78.7079 90.1666 74.1246 90.1666H49.1246C44.5413 90.1666 40.7913 93.9166 40.7913 98.5V102.667V102.667Z" stroke="#2FD686" stroke-width="5" stroke-miterlimit="10"/>
<path d="M36.6245 102.667H86.6245" stroke="#2FD686" stroke-width="5" stroke-linecap="round" stroke-linejoin="round"/>
<path d="M46.4583 73.7917C37.7083 68.75 31.8333 59.3334 31.8333 48.5V36C31.8333 26.7917 39.2916 19.3334 48.4999 19.3334H73.4999C82.7083 19.3334 90.1666 26.7917 90.1666 36V48.5C90.1666 64.4167 77.4582 77.3334 61.6249 77.6667C61.4166 77.6667 60.9999 77.6667 60.9999 77.6667" stroke="#2FD686" stroke-width="5" stroke-linecap="round" stroke-linejoin="round"/>
<path d="M33.7919 59.5415C30.6669 58.5415 27.9169 56.7082 25.7502 54.5415C22.0002 50.3749 19.5002 45.3749 19.5002 39.5415C19.5002 33.7082 24.0836 29.1249 29.9169 29.1249H32.6252C31.7919 31.0415 31.3752 33.1665 31.3752 35.3749V47.8749C31.3752 52.0415 32.2502 55.9582 33.7919 59.5415Z" stroke="#2FD686" stroke-width="5" stroke-linecap="round" stroke-linejoin="round"/>
<path d="M88.2085 59.5415C91.3335 58.5415 94.0835 56.7082 96.2502 54.5415C100 50.3749 102.5 45.3749 102.5 39.5415C102.5 33.7082 97.9168 29.1249 92.0835 29.1249H89.3752C90.2085 31.0415 90.6252 33.1665 90.6252 35.3749V47.8749C90.6252 52.0415 89.7502 55.9582 88.2085 59.5415Z" stroke="#2FD686" stroke-width="5" stroke-linecap="round" stroke-linejoin="round"/>
</svg>

<svg xmlns="http://www.w3.org/2000/svg" width="121" height="121" fill="none" xmlns:v="https://vecta.io/nano"><rect width="121" height="121" rx="35" fill="#deffee"/><g stroke="#2fd686" stroke-width="5"><path d="M61.625 79.75v8.75" stroke-linecap="round" stroke-linejoin="round"/><path d="M40.791 102.667h41.667V98.5a8.36 8.36 0 0 0-8.333-8.333h-25a8.36 8.36 0 0 0-8.333 8.333v4.167h0z" stroke-miterlimit="10"/><path d="M36.625 102.667h50M46.458 73.792C37.708 68.75 31.833 59.333 31.833 48.5V36c0-9.208 7.458-16.667 16.667-16.667h25c9.208 0 16.667 7.458 16.667 16.667v12.5c0 15.917-12.708 28.833-28.542 29.167H61" stroke-linecap="round" stroke-linejoin="round"/><path d="M33.792 59.542c-3.125-1-5.875-2.833-8.042-5-3.75-4.167-6.25-9.167-6.25-15s4.583-10.417 10.417-10.417h2.708c-.833 1.917-1.25 4.042-1.25 6.25v12.5a29.36 29.36 0 0 0 2.417 11.667zm54.417 0c3.125-1 5.875-2.833 8.042-5 3.75-4.167 6.25-9.167 6.25-15s-4.583-10.417-10.416-10.417h-2.708c.833 1.917 1.25 4.042 1.25 6.25v12.5a29.36 29.36 0 0 1-2.417 11.667z" stroke-linejoin="round"/></g></svg>
